file/rasberry-pi.svg

<svg clip-rule="evenodd" fill-rule="evenodd" stroke-linejoin="round" stroke-miterlimit="1.41421" viewBox="0 0 560 400" xmlns="http://www.w3.org/2000/svg"><g fill-rule="nonzero" transform="matrix(.0944166 0 0 .0944166 177.621 71.7093)"><path d="m598.602 6.26c-13.68.424-28.412 5.477-45.12 18.661-40.933-15.784-80.618-21.268-116.107 10.867-54.804-7.109-72.613 7.559-86.106 24.684-12.03-.249-90.024-12.366-125.79 40.986-89.881-10.636-118.288 52.868-86.101 112.085-18.357 28.419-37.378 56.493 5.551 110.669-15.186 30.174-5.773 62.906 30 102.519-9.441 42.418 9.117 72.344 42.403 95.668-6.226 58.046 53.23 91.793 70.983 103.82 6.817 33.821 21.025 65.737 88.936 83.384 11.199 50.403 52.014 59.108 91.536 69.686-130.628 75.931-242.649 175.835-241.889 420.961l-19.134 34.14c-149.783 91.08-284.542 383.85-73.815 621.8 13.765 74.49 36.849 127.99 57.404 187.21 30.742 238.6 231.375 350.33 284.292 363.54 77.545 59.07 160.131 115.12 271.892 154.38 105.354 108.65 219.492 150.07 334.253 150 1.68 0 3.4.02 5.08 0 114.76.07 228.9-41.34 334.25-150 111.76-39.26 194.35-95.31 271.9-154.38 52.91-13.21 253.55-124.94 284.29-363.54 20.55-59.22 43.64-112.72 57.4-187.21 210.72-237.97 75.97-530.75-73.82-621.84l-19.16-34.13c.76-245.11-111.26-345.014-241.89-420.964 39.52-10.576 80.34-19.281 91.54-69.687 67.91-17.649 82.12-49.564 88.93-83.384 17.76-12.023 77.21-45.774 70.99-103.82 33.28-23.325 51.84-53.253 42.4-95.667 35.77-39.613 45.19-72.344 30-102.52 42.94-54.153 23.89-82.227 5.56-110.645 32.16-59.218 3.78-122.722-86.14-112.086-35.75-53.352-113.73-41.235-125.78-40.985-13.5-17.125-31.3-31.794-86.1-24.685-35.49-32.134-75.17-26.651-116.11-10.866-48.6-38.355-80.77-7.609-117.5 4.015-58.85-19.229-72.3 7.11-101.22 17.835-64.17-13.561-83.68 15.965-114.44 47.127l-35.79-.709c-96.8 57.045-144.88 173.201-161.93 232.914-17.05-59.724-65.03-175.881-161.81-232.914l-35.787.709c-30.804-31.162-50.306-60.688-114.482-47.127-28.914-10.725-42.331-37.064-101.216-17.835-24.112-7.629-46.288-23.487-72.401-22.677z"/><g transform="matrix(7.72887 0 0 7.72887 25.194 6.21913)"><path d="m49.294 32.496c33.204 17.121 52.51 30.973 63.088 42.77-5.419 21.721-33.691 22.713-44.029 22.103 2.117-.985 3.883-2.165 4.509-3.978-2.594-1.844-11.791-.194-18.212-3.802 2.466-.511 3.62-1.009 4.774-2.829-6.067-1.935-12.602-3.602-16.445-6.808 2.074.026 4.011.464 6.719-1.414-5.434-2.928-11.232-5.249-15.737-9.725 2.81-.069 5.839-.028 6.719-1.061-4.973-3.081-9.169-6.508-12.643-10.256 3.932.475 5.592.066 6.543-.619-3.76-3.85-8.518-7.102-10.786-11.846 2.919 1.006 5.59 1.391 7.515-.089-1.278-2.882-6.751-4.582-9.902-11.317 3.073.298 6.333.671 6.984 0-1.426-5.811-3.874-9.078-6.274-12.463 6.577-.098 16.542.025 16.091-.531l-4.067-4.155c6.425-1.73 12.998.278 17.771 1.768 2.143-1.691-.038-3.829-2.653-6.012 5.46.729 10.394 1.984 14.853 3.714 2.383-2.152-1.547-4.303-3.448-6.454 8.435 1.6 12.009 3.848 15.561 6.1 2.576-2.47.147-4.569-1.592-6.719 6.36 2.356 9.636 5.397 13.085 8.399 1.17-1.578 2.971-2.735.796-6.543 4.516 2.603 7.917 5.67 10.433 9.107 2.794-1.779 1.664-4.212 1.679-6.454 4.693 3.817 7.672 7.88 11.317 11.847.735-.535 1.378-2.349 1.945-5.217 11.196 10.862 27.016 38.221 4.067 49.068-19.52-16.099-42.83-27.803-68.661-36.584l-.039-.02-.006.004zm176.259-.017c-25.847 8.783-49.167 20.489-68.686 36.599-22.949-10.848-7.129-38.206 4.067-49.068.568 2.868 1.211 4.682 1.945 5.216 3.646-3.967 6.624-8.029 11.317-11.847.015 2.242-1.114 4.675 1.68 6.454 2.516-3.436 5.917-6.503 10.433-9.106-2.175 3.808-.374 4.964.795 6.542 3.449-3.002 6.725-6.043 13.085-8.398-1.739 2.15-4.168 4.249-1.591 6.719 3.552-2.252 7.125-4.5 15.56-6.101-1.901 2.152-5.83 4.303-3.448 6.454 4.46-1.729 9.393-2.984 14.853-3.713-2.614 2.183-4.795 4.321-2.652 6.012 4.772-1.49 11.346-3.498 17.771-1.768l-4.067 4.155c-.452.556 9.513.433 16.091.53-2.401 3.385-4.848 6.653-6.277 12.466.652.671 3.911.298 6.984 0-3.151 6.735-8.624 8.435-9.902 11.317 1.925 1.48 4.596 1.095 7.515.089-2.268 4.744-7.026 7.996-10.786 11.846.951.685 2.611 1.094 6.543.619-3.474 3.748-7.67 7.175-12.643 10.256.88 1.033 3.909.992 6.719 1.061-4.505 4.476-10.303 6.797-15.737 9.725 2.708 1.878 4.645 1.44 6.719 1.414-3.843 3.206-10.378 4.873-16.445 6.808 1.154 1.82 2.308 2.318 4.775 2.829-6.422 3.608-15.619 1.958-18.213 3.802.626 1.813 2.392 2.993 4.509 3.978-10.338.61-38.61-.382-44.029-22.103 10.581-11.804 29.896-25.656 63.115-42.787l.011-.004-.004.001z" fill="#75a928"/><path d="m138.021 301.954c15.99-.698 37.445 5.15 37.487 12.908.265 7.533-19.458 24.554-38.547 24.225-19.77.852-39.155-16.195-38.901-22.103-.296-8.664 24.072-15.428 39.961-15.03zm56.78-50.325c-12.317 14.427-19.175 40.74-10.19 49.215 8.591 6.584 31.653 5.663 48.689-17.975 12.37-15.875 8.225-42.388 1.159-49.429-10.496-8.119-25.564 2.271-39.658 18.185zm-115.838 4.348c11.384 13.714 16.573 37.81 7.073 44.913-8.987 5.422-30.814 3.189-46.327-19.097-10.462-18.701-9.114-37.731-1.768-43.322 10.985-6.691 27.958 2.347 41.023 17.506zm98.684-2.317v.193c0 20.134-17.966 36.701-39.801 36.701-21.834 0-39.8-16.567-39.8-36.701 0-.064 0-.129 0-.193 0-.065 0-.129 0-.194 0-20.134 17.966-36.701 39.8-36.701 21.835 0 39.801 16.567 39.801 36.701zm-145.253-87.178c17.805-4.773 6.011 73.66-8.476 67.225-15.935-12.817-21.068-50.354 8.476-67.225zm205.763-.978c-17.807-4.771-6.011 73.665 8.476 67.23 15.935-12.819 21.068-50.359-8.476-67.23zm-123.34-16.687c16.381 10.733 19.378 35.426 6.64 54.703-12.738 19.276-36.7 26.307-53.081 15.575-16.381-10.733-19.378-35.426-6.64-54.703 12.738-19.276 36.7-26.307 53.081-15.575zm44.512-1.956c-16.381 10.733-19.379 35.426-6.641 54.702 12.739 19.277 36.7 26.308 53.081 15.576 16.381-10.733 19.379-35.426 6.64-54.703-12.738-19.276-36.699-26.307-53.08-15.575zm18.332-39.765c30.727-5.188 56.295 13.068 55.263 46.387-1.01 12.774-66.583-44.484-55.263-46.387zm-84.898-.978c-30.73-5.188-56.295 13.072-55.263 46.388 1.01 12.773 66.584-44.485 55.263-46.388zm44.138-7.77c-18.339-.477-35.94 13.611-35.982 21.782-.051 9.929 14.5 20.096 36.107 20.353 22.066.158 36.146-8.137 36.217-18.384.081-11.609-20.069-23.931-36.342-23.752z" fill="#bc1142"/></g></g></svg>

<?xml version="1.0" encoding="UTF-8" standalone="no"?>
<!DOCTYPE svg PUBLIC "-//W3C//DTD SVG 1.1//EN" "http://www.w3.org/Graphics/SVG/1.1/DTD/svg11.dtd">
<svg width="100%" height="100%" viewBox="0 0 560 400" version="1.1" xmlns="http://www.w3.org/2000/svg" xmlns:xlink="http://www.w3.org/1999/xlink" xml:space="preserve" xmlns:serif="http://www.serif.com/" style="fill-rule:evenodd;clip-rule:evenodd;stroke-linejoin:round;stroke-miterlimit:1.41421;">
    <g transform="matrix(0.0944166,0,0,0.0944166,177.621,71.7093)">
        <path id="path3737" d="M598.602,6.26C584.922,6.684 570.19,11.737 553.482,24.921C512.549,9.137 472.864,3.653 437.375,35.788C382.571,28.679 364.762,43.347 351.269,60.472C339.239,60.223 261.245,48.106 225.479,101.458C135.598,90.822 107.191,154.326 139.378,213.543C121.021,241.962 102,270.036 144.929,324.212C129.743,354.386 139.156,387.118 174.929,426.731C165.488,469.149 184.046,499.075 217.332,522.399C211.106,580.445 270.562,614.192 288.315,626.219C295.132,660.04 309.34,691.956 377.251,709.603C388.45,760.006 429.265,768.711 468.787,779.289C338.159,855.22 226.138,955.124 226.898,1200.25L207.764,1234.39C57.981,1325.47 -76.778,1618.24 133.949,1856.19C147.714,1930.68 170.798,1984.18 191.353,2043.4C222.095,2282 422.728,2393.73 475.645,2406.94C553.19,2466.01 635.776,2522.06 747.537,2561.32C852.891,2669.97 967.029,2711.39 1081.79,2711.32C1083.47,2711.32 1085.19,2711.34 1086.87,2711.32C1201.63,2711.39 1315.77,2669.98 1421.12,2561.32C1532.88,2522.06 1615.47,2466.01 1693.02,2406.94C1745.93,2393.73 1946.57,2282 1977.31,2043.4C1997.86,1984.18 2020.95,1930.68 2034.71,1856.19C2245.43,1618.22 2110.68,1325.44 1960.89,1234.35L1941.73,1200.22C1942.49,955.11 1830.47,855.206 1699.84,779.256C1739.36,768.68 1780.18,759.975 1791.38,709.569C1859.29,691.92 1873.5,660.005 1880.31,626.185C1898.07,614.162 1957.52,580.411 1951.3,522.365C1984.58,499.04 2003.14,469.112 1993.7,426.698C2029.47,387.085 2038.89,354.354 2023.7,324.178C2066.64,270.025 2047.59,241.951 2029.26,213.533C2061.42,154.315 2033.04,90.811 1943.12,101.447C1907.37,48.095 1829.39,60.212 1817.34,60.462C1803.84,43.337 1786.04,28.668 1731.24,35.777C1695.75,3.643 1656.07,9.126 1615.13,24.911C1566.53,-13.444 1534.36,17.302 1497.63,28.926C1438.78,9.697 1425.33,36.036 1396.41,46.761C1332.24,33.2 1312.73,62.726 1281.97,93.888L1246.18,93.179C1149.38,150.224 1101.3,266.38 1084.25,326.093C1067.2,266.369 1019.22,150.212 922.44,93.179L886.653,93.888C855.849,62.726 836.347,33.2 772.171,46.761C743.257,36.036 729.84,9.697 670.955,28.926C646.843,21.297 624.667,5.439 598.554,6.249L598.602,6.26Z" style="fill-rule:nonzero;"/>
        <g id="path3739" transform="matrix(7.72887,0,0,7.72887,25.194,6.21913)">
            <path d="M49.294,32.496C82.498,49.617 101.804,63.469 112.382,75.266C106.963,96.987 78.691,97.979 68.353,97.369C70.47,96.384 72.236,95.204 72.862,93.391C70.268,91.547 61.071,93.197 54.65,89.589C57.116,89.078 58.27,88.58 59.424,86.76C53.357,84.825 46.822,83.158 42.979,79.952C45.053,79.978 46.99,80.416 49.698,78.538C44.264,75.61 38.466,73.289 33.961,68.813C36.771,68.744 39.8,68.785 40.68,67.752C35.707,64.671 31.511,61.244 28.037,57.496C31.969,57.971 33.629,57.562 34.58,56.877C30.82,53.027 26.062,49.775 23.794,45.031C26.713,46.037 29.384,46.422 31.309,44.942C30.031,42.06 24.558,40.36 21.407,33.625C24.48,33.923 27.74,34.296 28.391,33.625C26.965,27.814 24.517,24.547 22.117,21.162C28.694,21.064 38.659,21.187 38.208,20.631L34.141,16.476C40.566,14.746 47.139,16.754 51.912,18.244C54.055,16.553 51.874,14.415 49.259,12.232C54.719,12.961 59.653,14.216 64.112,15.946C66.495,13.794 62.565,11.643 60.664,9.492C69.099,11.092 72.673,13.34 76.225,15.592C78.801,13.122 76.372,11.023 74.633,8.873C80.993,11.229 84.269,14.27 87.718,17.272C88.888,15.694 90.689,14.537 88.514,10.729C93.03,13.332 96.431,16.399 98.947,19.836C101.741,18.057 100.611,15.624 100.626,13.382C105.319,17.199 108.298,21.262 111.943,25.229C112.678,24.694 113.321,22.88 113.888,20.012C125.084,30.874 140.904,58.233 117.955,69.08C98.435,52.981 75.125,41.277 49.294,32.496L49.255,32.476L49.249,32.48L49.294,32.496ZM225.553,32.479C199.706,41.262 176.386,52.968 156.867,69.078C133.918,58.23 149.738,30.872 160.934,20.01C161.502,22.878 162.145,24.692 162.879,25.226C166.525,21.259 169.503,17.197 174.196,13.379C174.211,15.621 173.082,18.054 175.876,19.833C178.392,16.397 181.793,13.33 186.309,10.727C184.134,14.535 185.935,15.691 187.104,17.269C190.553,14.267 193.829,11.226 200.189,8.871C198.45,11.021 196.021,13.12 198.598,15.59C202.15,13.338 205.723,11.09 214.158,9.489C212.257,11.641 208.328,13.792 210.71,15.943C215.17,14.214 220.103,12.959 225.563,12.23C222.949,14.413 220.768,16.551 222.911,18.242C227.683,16.752 234.257,14.744 240.682,16.474L236.615,20.629C236.163,21.185 246.128,21.062 252.706,21.159C250.305,24.544 247.858,27.812 246.429,33.625C247.081,34.296 250.34,33.923 253.413,33.625C250.262,40.36 244.789,42.06 243.511,44.942C245.436,46.422 248.107,46.037 251.026,45.031C248.758,49.775 244,53.027 240.24,56.877C241.191,57.562 242.851,57.971 246.783,57.496C243.309,61.244 239.113,64.671 234.14,67.752C235.02,68.785 238.049,68.744 240.859,68.813C236.354,73.289 230.556,75.61 225.122,78.538C227.83,80.416 229.767,79.978 231.841,79.952C227.998,83.158 221.463,84.825 215.396,86.76C216.55,88.58 217.704,89.078 220.171,89.589C213.749,93.197 204.552,91.547 201.958,93.391C202.584,95.204 204.35,96.384 206.467,97.369C196.129,97.979 167.857,96.987 162.438,75.266C173.019,63.462 192.334,49.61 225.553,32.479L225.564,32.475L225.56,32.476L225.553,32.479Z" style="fill:rgb(117,169,40);fill-rule:nonzero;"/>
        </g>
        <g id="path3743" transform="matrix(7.72887,0,0,7.72887,25.194,6.21913)">
            <path d="M138.021,301.954C154.011,301.256 175.466,307.104 175.508,314.862C175.773,322.395 156.05,339.416 136.961,339.087C117.191,339.939 97.806,322.892 98.06,316.984C97.764,308.32 122.132,301.556 138.021,301.954ZM194.801,251.629C182.484,266.056 175.626,292.369 184.611,300.844C193.202,307.428 216.264,306.507 233.3,282.869C245.67,266.994 241.525,240.481 234.459,233.44C223.963,225.321 208.895,235.711 194.801,251.625L194.801,251.629ZM78.963,255.977C90.347,269.691 95.536,293.787 86.036,300.89C77.049,306.312 55.222,304.079 39.709,281.793C29.247,263.092 30.595,244.062 37.941,238.471C48.926,231.78 65.899,240.818 78.964,255.977L78.963,255.977ZM177.647,253.66C177.647,253.724 177.647,253.789 177.647,253.853C177.647,273.987 159.681,290.554 137.846,290.554C116.012,290.554 98.046,273.987 98.046,253.853C98.046,253.789 98.046,253.724 98.046,253.66C98.046,253.595 98.046,253.531 98.046,253.466C98.046,233.332 116.012,216.765 137.846,216.765C159.681,216.765 177.647,233.332 177.647,253.466C177.647,253.531 177.647,253.595 177.647,253.66ZM32.394,166.482C50.199,161.709 38.405,240.142 23.918,233.707C7.983,220.89 2.85,183.353 32.394,166.482ZM238.157,165.504C220.35,160.733 232.146,239.169 246.633,232.734C262.568,219.915 267.701,182.375 238.157,165.504ZM114.817,148.817C131.198,159.55 134.195,184.243 121.457,203.52C108.719,222.796 84.757,229.827 68.376,219.095C51.995,208.362 48.998,183.669 61.736,164.392C74.474,145.116 98.436,138.085 114.817,148.817ZM159.329,146.861C142.948,157.594 139.95,182.287 152.688,201.563C165.427,220.84 189.388,227.871 205.769,217.139C222.15,206.406 225.148,181.713 212.409,162.436C199.671,143.16 175.71,136.129 159.329,146.861ZM177.661,107.096C208.388,101.908 233.956,120.164 232.924,153.483C231.914,166.257 166.341,108.999 177.661,107.096ZM92.763,106.118C62.033,100.93 36.468,119.19 37.5,152.506C38.51,165.279 104.084,108.021 92.763,106.118ZM136.901,98.348C118.562,97.871 100.961,111.959 100.919,120.13C100.868,130.059 115.419,140.226 137.026,140.483C159.092,140.641 173.172,132.346 173.243,122.099C173.324,110.49 153.174,98.168 136.901,98.347L136.901,98.348Z" style="fill:rgb(188,17,66);fill-rule:nonzero;"/>
        </g>
    </g>
</svg>
